wdn/templates_4.0/images/infographics/globe-triad.svg

<svg xmlns="http://www.w3.org/2000/svg" width="180" height="142"><path fill="#137CBD" d="M90 40.7c-25.2 0-45.7 20.5-45.7 45.6 0 25.2 20.5 45.7 45.7 45.7s45.7-20.5 45.7-45.7c0-25.1-20.5-45.6-45.7-45.6zm-40.7 48h14.2c.2 6 1 11.7 2.4 16.8h-11.9c-2.7-5-4.4-10.7-4.7-16.8zm43.1-26.4v-16.5c6.1 1.3 11.5 7.6 15.1 16.6h-15.1v-.1zm16.8 4.8c1.5 5.1 2.399 10.8 2.6 16.8h-19.4v-16.8h16.8zm-21.6-21.3v16.5h-15.1c3.6-8.9 9-15.2 15.1-16.5zm0 21.3v16.8h-19.3c.2-6 1.1-11.7 2.6-16.8h16.7zm-24.1 16.8h-14.2c.4-6 2-11.801 4.7-16.8h11.8c-1.4 5.2-2.2 10.8-2.3 16.8zm4.8 4.8h19.3v16.8h-16.7c-1.5-5-2.4-10.7-2.6-16.8zm19.3 21.7v16.6c-6.1-1.3-11.5-7.6-15.1-16.6h15.1zm4.8 16.5v-16.6h15.1c-3.6 9-9 15.3-15.1 16.6zm0-21.3v-16.9h19.3c-.2 6-1.101 11.7-2.601 16.8h-16.699v.1zm24.2-16.9h14.2c-.3 6-2 11.8-4.7 16.8h-11.8c1.3-5.1 2.1-10.7 2.3-16.8zm0-4.8c-.199-6-1-11.7-2.399-16.8h11.799c2.7 5.1 4.4 10.8 4.7 16.8h-14.1zm6.4-21.6h-10.3c-2-5.6-4.601-10.3-7.8-14 7.3 2.9 13.5 7.8 18.1 14zm-48-13.9c-3.1 3.6-5.8 8.4-7.8 14h-10.2c4.6-6.3 10.8-11.2 18-14zm-18 62h10.3c2 5.6 4.6 10.3 7.8 14-7.3-2.9-13.5-7.8-18.1-14zm48 13.9c3.1-3.6 5.8-8.399 7.7-14h10.3c-4.6 6.3-10.8 11.2-18 14z"/></svg>

<?xml version="1.0" encoding="utf-8"?>
<!-- Generator: Adobe Illustrator 15.0.2, SVG Export Plug-In . SVG Version: 6.00 Build 0)  -->
<!DOCTYPE svg PUBLIC "-//W3C//DTD SVG 1.1//EN" "http://www.w3.org/Graphics/SVG/1.1/DTD/svg11.dtd">
<svg version="1.1" xmlns="http://www.w3.org/2000/svg" xmlns:xlink="http://www.w3.org/1999/xlink" x="0px" y="0px" width="180px"
	 height="142px" viewBox="0 0 180 142" style="enable-background:new 0 0 180 142;" xml:space="preserve">
<style type="text/css">
<![CDATA[
	.st0{fill:#137CBD;}
]]>
</style>
<g id="guides">
</g>
<g id="Layer_2">
	<path class="st0" d="M90,40.7c-25.2,0-45.7,20.5-45.7,45.6c0,25.2,20.5,45.7,45.7,45.7c25.2,0,45.7-20.5,45.7-45.7
		C135.7,61.2,115.2,40.7,90,40.7z M49.3,88.7h14.2c0.2,6,1,11.7,2.4,16.8H54C51.3,100.5,49.6,94.8,49.3,88.7z M92.4,62.3V45.8
		c6.1,1.3,11.5,7.6,15.1,16.6H92.4z M109.2,67.1c1.5,5.1,2.4,10.8,2.6,16.8H92.4V67.1H109.2z M87.6,45.8v16.5H72.5
		C76.1,53.4,81.5,47.1,87.6,45.8z M87.6,67.1v16.8H68.3c0.2-6,1.1-11.7,2.6-16.8H87.6z M63.5,83.9H49.3c0.4-6,2-11.8,4.7-16.8h11.8
		C64.4,72.3,63.6,77.9,63.5,83.9z M68.3,88.7h19.3v16.8H70.9C69.4,100.5,68.5,94.8,68.3,88.7z M87.6,110.4v16.6
		c-6.1-1.3-11.5-7.6-15.1-16.6H87.6z M92.4,126.9v-16.6h15.1C103.9,119.3,98.5,125.6,92.4,126.9z M92.4,105.6V88.7h19.3
		c-0.2,6-1.1,11.7-2.6,16.8H92.4z M116.6,88.7h14.2c-0.3,6-2,11.8-4.7,16.8h-11.8C115.6,100.4,116.4,94.8,116.6,88.7z M116.6,83.9
		c-0.2-6-1-11.7-2.4-16.8H126c2.7,5.1,4.4,10.8,4.7,16.8H116.6z M123,62.3h-10.3c-2-5.6-4.6-10.3-7.8-14
		C112.2,51.2,118.4,56.1,123,62.3z M75,48.4c-3.1,3.6-5.8,8.4-7.8,14H57C61.6,56.1,67.8,51.2,75,48.4z M57,110.4h10.3
		c2,5.6,4.6,10.3,7.8,14C67.8,121.5,61.6,116.6,57,110.4z M105,124.3c3.1-3.6,5.8-8.4,7.7-14H123C118.4,116.6,112.2,121.5,105,124.3
		z"/>
</g>
</svg>
